X:348
T:Seamo's Polka
M:C
L:1/8
Q:1/8=190
K:G
D2 G>D E2 F>E|D2 G>D E2 F>E|D>FG>B A>GF>E|D>FG>B A>GF>E|
D2 G>D E2 F>E|D2 G>D E2 F>E|D>FG>B A2 F>D|E2 F2 G4:||
F2 G2 A2 F2|E2 D2 G2 A2|B6 G2|D2 B2 c3 B|
B2 A2 D4|c2 B>B A2 G2|F6 E>E|D2 G2 G2 D>D|
E2 A2 A2 F>E|D2 G2 G2 A2|B6 G2|D2 G>d c3 B|
B2 A2E4|A2 D>D E2 F2|G8||
